X: 21442
Q: "Majestically and slow.
M: C
L: 1/8
K: Fmix
|:\
{Bc}d2 c>B B>cd>c | B<G G>F F4 :| \
d2 d>c (d2 f)z | c2 c>B c2 (de) |
(f<d)c>B B>c {Bc}d>c | (B<G)G>F F4 |\
d2 d>c (d2 f)z | c2 cB c>deg |\
(f<d)c>B B>c {Bc}Hd>c | (B<G)G>F F4 |]


